germany/districts/8135.svg

<?xml version="1.0" encoding="UTF-8" standalone="no"?>
<!-- Created with Inkscape (http://www.inkscape.org/) -->

<svg
   xml:space="preserve"
   id="svg11947"
   version="1.1"
   viewBox="0 0 31.75 38.1"
   width="120"
   height="144"
   sodipodi:docname="Wappen_Landkreis_Heidenheim.svg"
   inkscape:version="1.2 (dc2aeda, 2022-05-15)"
   xmlns:inkscape="http://www.inkscape.org/namespaces/inkscape"
   xmlns:sodipodi="http://sodipodi.sourceforge.net/DTD/sodipodi-0.dtd"
   xmlns="http://www.w3.org/2000/svg"
   xmlns:svg="http://www.w3.org/2000/svg"><sodipodi:namedview
     id="namedview198"
     pagecolor="#ffffff"
     bordercolor="#000000"
     borderopacity="0.25"
     inkscape:showpageshadow="2"
     inkscape:pageopacity="0.0"
     inkscape:pagecheckerboard="0"
     inkscape:deskcolor="#d1d1d1"
     inkscape:document-units="px"
     showgrid="false"
     inkscape:zoom="1.9991732"
     inkscape:cx="26.51096"
     inkscape:cy="30.262511"
     inkscape:window-width="1390"
     inkscape:window-height="1205"
     inkscape:window-x="2240"
     inkscape:window-y="25"
     inkscape:window-maximized="0"
     inkscape:current-layer="svg11947" /><defs
     id="defs11944"><linearGradient
       id="s_Salbe_Schwarz"
       inkscape:swatch="solid"><stop
         style="stop-color:#000000;stop-opacity:1;"
         offset="0"
         id="stop3747" /></linearGradient><linearGradient
       id="a_Argent_Silber"
       inkscape:swatch="solid"><stop
         style="stop-color:#ffffff;stop-opacity:1;"
         offset="0"
         id="stop3741" /></linearGradient><linearGradient
       id="A_Argent-dark_Silber-dunkel"
       inkscape:swatch="solid"><stop
         style="stop-color:#e7e7e7;stop-opacity:1;"
         offset="0"
         id="stop3735" /></linearGradient><linearGradient
       id="g_Gules_Rot"
       inkscape:swatch="solid"><stop
         style="stop-color:#da121a;stop-opacity:1;"
         offset="0"
         id="stop3729" /></linearGradient><linearGradient
       id="o_Or_Gold"
       inkscape:swatch="solid"><stop
         style="stop-color:#fcdd09;stop-opacity:1;"
         offset="0"
         id="stop3723" /></linearGradient><linearGradient
       id="b_Azure_Blau"
       inkscape:swatch="solid"><stop
         style="stop-color:#0f47af;stop-opacity:1;"
         offset="0"
         id="stop3717" /></linearGradient><linearGradient
       id="B_Bleu-celeste_Hellblau"
       inkscape:swatch="solid"><stop
         style="stop-color:#4d87ca;stop-opacity:1;"
         offset="0"
         id="stop3711" /></linearGradient><linearGradient
       id="B_Bleu-celeste-alt_Hellblau-alt"
       inkscape:swatch="solid"><stop
         style="stop-color:#89c5e3;stop-opacity:1;"
         offset="0"
         id="stop3705" /></linearGradient><linearGradient
       id="v_Vert_Gruen"
       inkscape:swatch="solid"><stop
         style="stop-color:#078930;stop-opacity:1;"
         offset="0"
         id="stop3699" /></linearGradient><linearGradient
       id="c_Carnation_Fleischfarbe"
       inkscape:swatch="solid"><stop
         style="stop-color:#f2a772;stop-opacity:1;"
         offset="0"
         id="stop3693" /></linearGradient><linearGradient
       id="p_Purpure_Purpur"
       inkscape:swatch="solid"><stop
         style="stop-color:#9116a1;stop-opacity:1;"
         offset="0"
         id="stop3687" /></linearGradient><linearGradient
       id="t_Tenne_Braun"
       inkscape:swatch="solid"><stop
         style="stop-color:#9d5333;stop-opacity:1;"
         offset="0"
         id="stop3681" /></linearGradient><linearGradient
       id="C_Cendre_Eisen"
       inkscape:swatch="solid"><stop
         style="stop-color:#999999;stop-opacity:1;"
         offset="0"
         id="stop3675" /></linearGradient><linearGradient
       id="Murray_Maulbeere"
       inkscape:swatch="solid"><stop
         style="stop-color:#630727;stop-opacity:1;"
         offset="0"
         id="stop3669" /></linearGradient><linearGradient
       id="Rose_Rosa"
       inkscape:swatch="solid"><stop
         style="stop-color:#e63d6a;stop-opacity:1;"
         offset="0"
         id="stop2937" /></linearGradient><linearGradient
       id="Orange_Orange"
       inkscape:swatch="solid"><stop
         style="stop-color:#ed5f00;stop-opacity:1;"
         offset="0"
         id="stop2931" /></linearGradient><linearGradient
       id="Buff_Leder"
       inkscape:swatch="solid"><stop
         style="stop-color:#ddc595;stop-opacity:1;"
         offset="0"
         id="stop2925" /></linearGradient><linearGradient
       id="Copper_Kupfer"
       inkscape:swatch="solid"><stop
         style="stop-color:#953d02;stop-opacity:1;"
         offset="0"
         id="stop1435" /></linearGradient></defs><g
     inkscape:groupmode="layer"
     id="layer1"
     inkscape:label="Wappen"><path
       d="M 2e-7,3.1e-6 V 22.225003 c 0,8.767498 7.107502,15.875 15.8749998,15.875 8.767498,0 15.875,-7.107502 15.875,-15.875 V 3.1e-6 Z"
       id="path11658"
       style="stroke-width:0.264583"
       inkscape:label="Schildrand"
       sodipodi:nodetypes="cssscc" /><path
       id="rect11660"
       style="fill:#fcdd09;fill-opacity:1;stroke-width:0.529167;stroke-dasharray:none"
       inkscape:label="Schild"
       d="M 0.52916667 0.52916667 L 0.52916667 19.314583 L 0.52916667 22.225 C 0.52916667 30.699853 7.4001483 37.570833 15.875 37.570833 L 15.875 0.52916667 L 0.52916667 0.52916667 z " /><path
       d="m 17.69942,4.7796196 h 2.10136 v 1.755871 h 2.070157 v -1.755871 h 1.896143 v 1.755871 h 2.070156 v -1.755871 h 2.10136 V 7.8637533 H 17.69942 Z m 0.189615,3.2745532 0.948071,1.2804441 h 7.963803 l 0.948072,-1.2804441 z m 0.948071,1.4708631 h 7.963803 V 21.113629 h -7.963803 z m 1.896144,2.1507381 h 1.137687 v 3.420782 H 20.73325 Z m 3.03383,0 h 1.137686 v 3.420782 H 23.76708 Z m -4.929974,9.628274 h 7.963803 l 0.758458,1.332939 h -9.480718 z m -0.758457,1.523359 h 5.587502 3.893216 v 7.087625 h -9.480718 z m 2.654601,4.29547 c 0,-0.548409 0.225641,-1.09301 0.610558,-1.481466 0.386813,-0.386553 0.929111,-0.613151 1.4752,-0.613151 0.546089,0 1.088386,0.226598 1.4752,0.613151 0.384917,0.388456 0.610558,0.933057 0.610558,1.481466 v 2.64777 H 20.73325 Z"
       fill-rule="evenodd"
       stroke="#000000"
       fill="#fcdb00"
       id="path4002"
       style="display:inline;opacity:1;fill:#fcdd09;stroke-width:0.264583"
       sodipodi:nodetypes="ccccccccccccccccccccccccccccccccccccccccccccscscsccs" /><path
       id="rect5155"
       style="opacity:1;fill:#da121a;stroke:none;stroke-width:0.529167;stroke-miterlimit:24"
       d="M 0.52916667 13.056051 L 0.52916667 19.314583 L 0.52916667 22.225 C 0.52916667 23.292239 0.63801949 24.334205 0.84542643 25.340055 L 15.875 25.340055 L 15.875 13.056051 L 0.52916667 13.056051 z " /><path
       style="opacity:1;fill:none;stroke:#000000;stroke-width:0.26458333;stroke-miterlimit:24;stroke-dasharray:none"
       d="M 0.52916666,13.056051 H 15.875"
       id="path5267" /><path
       style="opacity:1;fill:none;stroke:#000000;stroke-width:0.264583;stroke-miterlimit:24;stroke-dasharray:none"
       d="M 0.8455693,25.340055 H 15.875"
       id="path5269" /></g></svg>

<svg xml:space="preserve" viewBox="0 0 31.75 38.1" width="120" height="144" xmlns="http://www.w3.org/2000/svg"><path d="M0 0v22.225C0 30.993 7.108 38.1 15.875 38.1S31.75 30.993 31.75 22.225V0z" style="stroke-width:.264583"/><path style="fill:#fcdd09;fill-opacity:1;stroke-width:.529167;stroke-dasharray:none" d="M.53.53v21.695c0 8.475 6.87 15.346 15.345 15.346V.529H.529z"/><path d="M17.7 4.78h2.1v1.755h2.07V4.78h1.897v1.755h2.07V4.78h2.102v3.084h-10.24zm.189 3.274.948 1.28h7.964l.948-1.28zm.948 1.471h7.964v11.589h-7.964zm1.896 2.15h1.138v3.422h-1.138zm3.034 0h1.138v3.422h-1.138zm-4.93 9.629h7.964l.758 1.333h-9.48zm-.758 1.523h9.48v7.088h-9.48zm2.654 4.296c0-.549.226-1.093.61-1.482.388-.386.93-.613 1.476-.613.546 0 1.088.227 1.475.613.385.389.61.933.61 1.482v2.648h-4.17z" fill-rule="evenodd" stroke="#000" fill="#fcdb00" style="display:inline;opacity:1;fill:#fcdd09;stroke-width:.264583"/><path style="opacity:1;fill:#da121a;stroke:none;stroke-width:.529167;stroke-miterlimit:24" d="M.53 13.056v9.169c0 1.067.108 2.11.315 3.115h15.03V13.056H.529z"/><path style="opacity:1;fill:none;stroke:#000;stroke-width:.26458333;stroke-miterlimit:24;stroke-dasharray:none" d="M.53 13.056h15.345"/><path style="opacity:1;fill:none;stroke:#000;stroke-width:.264583;stroke-miterlimit:24;stroke-dasharray:none" d="M.846 25.34h15.029"/></svg>
